X: 2111
T: Lamberton Races    Reel
%R: reel
B: Niel Gow & Sons "A Second Collection of Strathspey Reels, etc." v.2 p.11 #1
Z: 2022 John Chambers <jc:trillian.mit.edu>
M: C
L: 1/8
K: F
% - - - - - - - - - -
% Voice 1 reformatted for 1 8-bar line, for compactness and proofreading.
V: 1 staves=2
A | (FA).c.f afTge | .f(dcA) BGGA | (FA).c.f afTge | f(dTc)>B AFF :: B |\
AcFc AcFc | TB.c (d/c/)B/.A/ BGGA | (FAc)f afTge | f(dTc)>B AFF :|
% - - - - - - - - - -
% Voice 2 preserves the staff layout in the book.
V: 2 clef=bass middle=d
z | f2f2 f2c2 | B2f2 c'2c2 | f2f2 f2c2 | B2c2 f2f :: z |
f2f2 f2f2 | e2f2 c'2c2 | f2f2 f2c'2 | b2c'2 f2f :|


